dist/svg/static/adblue-alert-small.svg

<svg xmlns="http://www.w3.org/2000/svg" width="24" height="24" viewBox="0 0 24 24"><g fill="none" stroke="currentColor"><g stroke-miterlimit="10"><path d="M12.6 15.5c-.9.6-2.1.4-2.7-.5l-.4-.5L7 16l-2.5-3.5 3-2-1.5-2 10.8-6.9c.9-.6 2.2-.3 2.8.6l3.7 6.3-2.8 2M4.5 15.5S.5 18 .5 24"/><path d="M14.5 10.5c-3.1 0-3-3-3-3 0 3-3 3-3 3h-1"/></g><path stroke-linejoin="round" d="M17.5 14v3M17.5 18v2"/><path stroke-miterlimit="10" d="M23.2 21.5H11.8l5.7-12z"/></g></svg>

<?xml version="1.0" encoding="UTF-8" standalone="no"?>
<svg width="24px" height="24px" viewBox="0 0 24 24" version="1.1" xmlns="http://www.w3.org/2000/svg" xmlns:xlink="http://www.w3.org/1999/xlink">
    <!-- Generator: sketchtool 46.2 (44496) - http://www.bohemiancoding.com/sketch -->
    <title>adblue-alert-small</title>
    <desc>Created with sketchtool.</desc>
    <defs></defs>
    <g id="icons-published" stroke="none" stroke-width="1" fill="none" fill-rule="evenodd">
        <g id="briefing" transform="translate(-68.000000, -26.000000)"></g>
        <g id="adblue-alert-small" stroke="#000000">
            <path d="M12.6,15.5 C11.7,16.1 10.5,15.9 9.9,15 L9.5,14.5 L7,16 L4.5,12.5 L7.5,10.5 L6,8.5 L16.8,1.6 C17.7,1 19,1.3 19.6,2.2 L23.3,8.5 L20.5,10.5 M4.5,15.5 C4.5,15.5 0.5,18 0.5,24" id="Shape"></path>
            <path d="M14.5,10.5 C11.4,10.5 11.5,7.5 11.5,7.5 C11.5,10.5 8.5,10.5 8.5,10.5 L7.5,10.5" id="Shape"></path>
            <path d="M17.5,14 L17.5,17 M17.5,18 L17.5,20" id="Shape" stroke-linejoin="round"></path>
            <polygon id="Shape" points="23.2 21.5 11.8 21.5 17.5 9.5"></polygon>
        </g>
    </g>
</svg>
